Suru++-Ubuntu/apps/symbolic/libreoffice-chart-symbolic.svg

<svg xmlns="http://www.w3.org/2000/svg" style="enable-background:new" width="16" height="16" version="1.1">
 <g transform="translate(-112,-180)">
  <path d="m 123.28105,180.00525 c -0.27821,0.0752 -0.37465,0.49932 -0.15625,0.68727 l 3.1875,3.18646 c 0.21982,0.23021 0.69212,0.0371 0.6875,-0.28116 l 0,-3.21769 c -0.0122,-0.20318 -0.20269,-0.37897 -0.40625,-0.37488 l -3.1875,0 c -0.0413,-0.007 -0.0837,-0.007 -0.125,0 z" style="fill:#808080"/>
  <path style="fill:#808080" d="M 1.84375 0.005859375 C 1.36245 0.093259375 0.99137 0.53940937 1 1.0058594 L 1 15 C 1.00006 15.52341 1.51276 15.99995 2.0625 16 L 13.9375 16 C 14.48725 15.99995 14.99995 15.52341 15 15 L 15 7.5 C 15.006 7.23603 14.88035 6.8811362 14.6875 6.6914062 L 8.28125 0.28710938 C 8.08198 0.10346938 7.8085 -0.000260625 7.53125 0.005859375 L 2.0625 0.005859375 C 1.9971 -0.000140625 1.90919 -0.000140625 1.84375 0.005859375 z M 2.25 1.25 L 7.5 1.25 L 13.75 7.5 L 13.75 14.75 L 2.25 14.75 L 2.25 1.25 z M 4 6 L 4 13 L 6 13 L 6 6 L 4 6 z M 10 8 L 10 13 L 12 13 L 12 8 L 10 8 z M 7 9 L 7 13 L 9 13 L 9 9 L 7 9 z" transform="translate(112,180)"/>
 </g>
</svg>

<svg width="16" height="16" style="enable-background:new" version="1.1" xmlns="http://www.w3.org/2000/svg">
 <g transform="translate(-112,-180)">
  <path d="m123.28105 180.00525c-0.27821 0.0752-0.37465 0.49932-0.15625 0.68727l3.1875 3.18646c0.21982 0.23021 0.69212 0.0371 0.6875-0.28116v-3.21769c-0.0122-0.20318-0.20269-0.37897-0.40625-0.37488h-3.1875c-0.0413-7e-3 -0.0837-7e-3 -0.125 0z" style="fill:#808080"/>
  <path transform="translate(112,180)" d="m1.84375 0.005859375c-0.4813 0.0874-0.85238 0.53355-0.84375 1v13.994141c6e-5 0.52341 0.51276 0.99995 1.0625 1h11.875c0.54975-5e-5 1.06245-0.47659 1.0625-1v-7.5c6e-3 -0.26397-0.11965-0.6188638-0.3125-0.8085938l-6.40625-6.4042968c-0.19927-0.18364-0.47275-0.28737-0.75-0.28125h-5.46875c-0.0654-6e-3 -0.15331-6e-3 -0.21875 0zm0.40625 1.2441406h5.25l6.25 6.25v7.25h-11.5v-13.5zm1.75 4.75v7h2v-7h-2zm6 2v5h2v-5h-2zm-3 1v4h2v-4h-2z" style="fill:#808080"/>
 </g>
</svg>
